lib/brands/icons/clippy.svg

<svg xmlns="http://www.w3.org/2000/svg" fill="none" aria-hidden="true" viewBox="0 0 48 48"><g id="clippy-Icon"><path id="Vector" fill="#1E2226" d="M31.5002 31C31.5002 32.3261 30.9734 33.5979 30.0357 34.5355C29.098 35.4732 27.8262 36 26.5002 36C25.1741 36 23.9023 35.4732 22.9646 34.5355C22.0269 33.5979 21.5002 32.3261 21.5002 31V27.5C21.5002 27.1022 21.6582 26.7206 21.9395 26.4393C22.2208 26.158 22.6023 26 23.0002 26C23.398 26 23.7795 26.158 24.0608 26.4393C24.3421 26.7206 24.5002 27.1022 24.5002 27.5V31C24.5002 31.5304 24.7109 32.0391 25.0859 32.4142C25.461 32.7893 25.9697 33 26.5002 33C27.0306 33 27.5393 32.7893 27.9144 32.4142C28.2894 32.0391 28.5002 31.5304 28.5002 31V23.78C26.7602 23.22 25.5002 21.74 25.5002 20C25.5002 17.8 27.5002 16 30.0002 16C32.5002 16 34.5002 17.8 34.5002 20C34.5002 21.74 33.2402 23.22 31.5002 23.78V31ZM18.0002 16C20.5002 16 22.5002 17.8 22.5002 20C22.5002 21.74 21.2402 23.22 19.5002 23.78V34.5C19.5002 36.2239 20.185 37.8772 21.404 39.0962C22.0075 39.6998 22.7241 40.1786 23.5127 40.5052C24.3013 40.8319 25.1466 41 26.0002 41C27.7241 41 29.3774 40.3152 30.5963 39.0962C31.8153 37.8772 32.5002 36.2239 32.5002 34.5V27.5C32.5002 27.1022 32.6582 26.7206 32.9395 26.4393C33.2208 26.158 33.6023 26 34.0002 26C34.398 26 34.7795 26.158 35.0608 26.4393C35.3421 26.7206 35.5002 27.1022 35.5002 27.5V34.5C35.5002 37.0196 34.4993 39.4359 32.7177 41.2175C30.9361 42.9991 28.5197 44 26.0002 44C23.4806 44 21.0642 42.9991 19.2826 41.2175C17.501 39.4359 16.5002 37.0196 16.5002 34.5V23.78C14.7602 23.22 13.5002 21.74 13.5002 20C13.5002 17.8 15.5002 16 18.0002 16ZM21.6202 12.26L20.7602 15.18C19.9402 14.74 19.0002 14.5 18.0002 14.5C16.1802 14.5 14.5602 15.3 13.5602 16.54L11.1602 14.74C12.4202 13.14 14.3202 12 16.5002 11.62V11.5C16.5002 9.51088 17.2903 7.60322 18.6969 6.1967C20.1034 4.79018 22.011 4 24.0002 4C25.9893 4 27.8969 4.79018 29.3035 6.1967C30.71 7.60322 31.5002 9.51088 31.5002 11.5V11.62C33.6802 12 35.5802 13.14 36.8402 14.74L34.4402 16.54C33.4402 15.3 31.8202 14.5 30.0002 14.5C29.0002 14.5 28.0602 14.74 27.2402 15.18L26.3802 12.26C27.0402 12 27.7602 11.74 28.5002 11.62V11.5C28.5002 9 26.5002 7 24.0002 7C21.5002 7 19.5002 9 19.5002 11.5V11.62C20.2402 11.74 20.9602 12 21.6202 12.26ZM30.0002 18.5C28.9002 18.5 28.0002 19.18 28.0002 20C28.0002 20.82 28.9002 21.5 30.0002 21.5C31.1002 21.5 32.0002 20.82 32.0002 20C32.0002 19.18 31.1002 18.5 30.0002 18.5ZM18.0002 18.5C16.9002 18.5 16.0002 19.18 16.0002 20C16.0002 20.82 16.9002 21.5 18.0002 21.5C19.1002 21.5 20.0002 20.82 20.0002 20C20.0002 19.18 19.1002 18.5 18.0002 18.5Z"/></g></svg>

<svg xmlns="http://www.w3.org/2000/svg" fill="none" aria-hidden="true" viewBox="0 0 48 48"><path fill="#1E2226" d="M31.5 31a5 5 0 1 1-10 0v-3.5a1.5 1.5 0 1 1 3 0V31a2 2 0 0 0 4 0v-7.22c-1.74-.56-3-2.04-3-3.78 0-2.2 2-4 4.5-4s4.5 1.8 4.5 4c0 1.74-1.26 3.22-3 3.78V31ZM18 16c2.5 0 4.5 1.8 4.5 4 0 1.74-1.26 3.22-3 3.78V34.5a6.5 6.5 0 1 0 13 0v-7a1.5 1.5 0 1 1 3 0v7a9.5 9.5 0 1 1-19 0V23.78c-1.74-.56-3-2.04-3-3.78 0-2.2 2-4 4.5-4Zm3.62-3.74-.86 2.92c-.82-.44-1.76-.68-2.76-.68-1.82 0-3.44.8-4.44 2.04l-2.4-1.8c1.26-1.6 3.16-2.74 5.34-3.12v-.12a7.5 7.5 0 0 1 15 0v.12c2.18.38 4.08 1.52 5.34 3.12l-2.4 1.8c-1-1.24-2.62-2.04-4.44-2.04-1 0-1.94.24-2.76.68l-.86-2.92c.66-.26 1.38-.52 2.12-.64v-.12C28.5 9 26.5 7 24 7s-4.5 2-4.5 4.5v.12c.74.12 1.46.38 2.12.64ZM30 18.5c-1.1 0-2 .68-2 1.5s.9 1.5 2 1.5 2-.68 2-1.5-.9-1.5-2-1.5Zm-12 0c-1.1 0-2 .68-2 1.5s.9 1.5 2 1.5 2-.68 2-1.5-.9-1.5-2-1.5Z"/></svg>
